!! 00000] TT[00
!! NN
!!!OTL: Kezi le bi dai
!!!ARE: Xinjiang, Yili
!! Ethnic Group: Hasake
!! IV, 482
!!!SCT: C0430
!!!YEM: Copyright 1995, estate of Helmut Schaffrath.
**kern
*ICvox
*Ivox
!! Mixed meters:  3/8; 4/8
*M4/8
*k[f#]
*G:
{8g
8g
8cc
=1
[4.cc
=2
4.cc]
=3
[4.b
=4
4.b]}
=5
{8cc
8dd
8ee
=6
[4.gg
=7
4gg]
8gg
=8
8ee
8dd
8ee
=9
4.b
=10
8b
8a
8b
=11
4.dd}
=12
{8ee
8dd
8b
=13
4.a
=14
4a
24b
24a
24g
=15
[4.g
=16
4.g_
=17
4.g_
=18
4.g]}
=19
{4dd
8ee
=20
[4.ff#
=21
8ff#]
4dd
=22
8dd
8ee
8ff#
=23
[4.gg
=24
4.gg]
=25
[4.ff#
=26
4.ff#]}
=27
{8ee
8ff#
8gg
=28
8ff#
4ee
[8dd
=29
*M3/8
4.dd_
=30
4.dd_
=31
4.dd_
=32
4.dd]}
=33
{4ee
8ff#
=34
[4.aa
=35
4.aa_
=36
4.aa_
=37
4aa]
16bb
16aa
=38
4.gg
=39
4.ff#}
=40
{8gg
8ff#
8gg
=41
[4.aa
=42
4.aa_
=43
4.aa]
=44
8ee
8ff#
8ee
=45
[4.dd
=46
4.dd]}
=47
{[4.cc
=48
8cc]
8b
8a
=49
[4.b
=50
4b]}
{8g
=51
[4.a
=52
4.a]
=53
[4.g
=54
4.g_
=55
4.g_
=56
4.g]}
=57
{8cc
8cc
8dd
=58
8ee
4gg
=59
8dd
8dd
8cc
=60
8b
8dd
8b
=61
4.a}
=62
{8d
8d
8g
=63
4.g
=64
8b
8a
8b
=65
8ee
8dd
8b
=66
4.a}
=67
{8d
8e
8f#
=68
8g
4a
=69
8a
[4g
=70
4.g_
=71
4.g_
=72
4.g]}
=73
{8dd
8ee
8ff#
=74
4dd
8r}
=75
{8ee
8ff#
16gg
16ff#
=76
4ee
8r}
=77
{4ee
8ff#
=78
[4.aa
=79
4.aa_
=80
4.aa]
=81
8ff#
4gg
=82
4.ff#}
=83
{8gg
8ff#
8gg
=84
4aa
8ff#
=85
8ee
8ff#
8ee
=86
[4.dd
=87
4dd]}
{8b
=88
[4.cc
=89
8cc]
8b
8a
=90
[4.b
=91
4b]}
{8g
=92
[4.a
=93
4.a]
=94
[4.g
=95
4.g_
=96
4.g_
=97
4.g]}
=98
{8cc
8cc
8dd
=99
8ee
4gg
=100
8dd
8dd
8cc
=101
8b
8dd
8b
=102
4.a}
=103
{8d
8d
8g
=104
4.g
=105
8b
8a
8b
=106
8ee
8dd
8b
=107
4.a}
=108
{8d
8e
8f#
=109
8g
4a
=110
8a
[4g
=111
4.g_
=112
4.g_
=113
4.g_
=114
4.g]}
==
!!!AGN: Aiqing gequ
!! Der Kasaken-Stil Stil ist schwer beschreibbar, weil die Menschen
!!    zwischen China und der Sowjetunion pendeln. Herr Jiang meint, diese
!!    Musik sei ein wenig von den Arabern beeinflusst, allerdings weniger
!!    als die der weiwuer.
!!    Vereinzelt Verzierungen, Glissandi. Vor- und Zwischenspiele weggelas-
!!    sen. Im Vorspiel auch 5/8- und 6/8-Takte.
!!!ONB: ESAC (Essen Associative Code) Database: CHINA
!!!AMT: irregular
!!!AIN: vox
!!!EED: Helmut Schaffrath
!!!EEV: 1.0
*-
!!!ONB: Tied note syntax fixed by Craig Sapp, 2004/05/03/
